X:1
T: The Bridge of Gairn
C:Alexander Walker
R:Strathspey
Q: 128
K:D
M:4/4
L:1/16
|:A2|F3D DDD2 B,3D A,3D|F3D A3F BE3 E3A|F3D DDD2 B,3D A,3D|G3B A3c dD3 D3A|
F3D DDD2 B,3D A,3D|F3D A3F BE3 E3c|d3f a3e B3d A3F|G3B A3c dD3 D3g|
f3d fedc d3B A3F|G3B F3A BE3 E3g|f3d fedc d3B A3F|G3b a3g fd3 d3g|
f3d fedc d3B A3F|G3B F3A BE3 E3A|FD3 FA3 GB3 Ad3|ce3 A3c dD3 D2:|
